packages/dnb-ui-lib/assets/icons/download.svg

<svg width="16" height="16" viewBox="0 0 16 16" fill="none" xmlns="http://www.w3.org/2000/svg">
<path fill-rule="evenodd" clip-rule="evenodd" d="M7.25 10.1893L3.53033 6.46967C3.23744 6.17678 2.76256 6.17678 2.46967 6.46967C2.17678 6.76256 2.17678 7.23744 2.46967 7.53033L7.46967 12.5303C7.76256 12.8232 8.23744 12.8232 8.53033 12.5303L13.5303 7.53033C13.8232 7.23744 13.8232 6.76256 13.5303 6.46967C13.2374 6.17678 12.7626 6.17678 12.4697 6.46967L8.75 10.1893L8.75 1C8.75 0.585787 8.41421 0.25 8 0.25C7.58579 0.25 7.25 0.585787 7.25 1L7.25 10.1893ZM1.75 15.25C1.75 14.8358 2.08579 14.5 2.5 14.5L13.5 14.5C13.9142 14.5 14.25 14.8358 14.25 15.25C14.25 15.6642 13.9142 16 13.5 16L2.5 16C2.08579 16 1.75 15.6642 1.75 15.25Z" fill="black"/>
</svg>

<svg width="16" height="16" viewBox="0 0 16 16" fill="none" xmlns="http://www.w3.org/2000/svg"><path fill-rule="evenodd" clip-rule="evenodd" d="M7.25 10.19L3.53 6.47a.75.75 0 00-1.06 1.06l5 5a.75.75 0 001.06 0l5-5a.75.75 0 00-1.06-1.06l-3.72 3.72V1a.75.75 0 00-1.5 0v9.19zm-5.5 5.06a.75.75 0 01.75-.75h11a.75.75 0 010 1.5h-11a.75.75 0 01-.75-.75z" fill="#000"/></svg>
